svg/add-folder.svg

<?xml version="1.0" encoding="UTF-8"?>
<svg xmlns="http://www.w3.org/2000/svg" xmlns:xlink="http://www.w3.org/1999/xlink" width="32" height="32" viewBox="0 0 32 32">
<path fill-rule="nonzero" fill="rgb(0%, 0%, 0%)" fill-opacity="1" d="M 3.199219 2.558594 C 2.140625 2.558594 1.277344 3.417969 1.28125 4.480469 L 1.28125 8.320312 L 30.71875 8.320312 L 30.71875 7.039062 C 30.722656 6.53125 30.519531 6.042969 30.160156 5.679688 C 29.800781 5.320312 29.3125 5.121094 28.800781 5.121094 L 11.546875 5.125 C 11.371094 5.058594 11 4.472656 10.800781 4.15625 C 10.3125 3.371094 9.804688 2.558594 8.960938 2.558594 Z M 1.921875 9.601562 C 1.570312 9.605469 1.285156 9.886719 1.28125 10.238281 L 1.28125 27.519531 C 1.28125 28.578125 2.140625 29.441406 3.199219 29.441406 L 20.496094 29.441406 C 21.667969 30.988281 23.519531 32 25.601562 32 C 29.121094 32 32 29.121094 32 25.601562 C 32 24.171875 31.519531 22.851562 30.71875 21.785156 L 30.71875 10.238281 C 30.714844 9.886719 30.429688 9.605469 30.078125 9.601562 Z M 25.601562 20.480469 C 28.414062 20.480469 30.71875 22.785156 30.71875 25.601562 C 30.71875 28.414062 28.414062 30.71875 25.601562 30.71875 C 22.785156 30.71875 20.480469 28.414062 20.480469 25.601562 C 20.480469 22.785156 22.785156 20.480469 25.601562 20.480469 M 25.601562 21.824219 C 25.214844 21.824219 24.960938 22.078125 24.960938 22.464844 L 24.960938 24.960938 L 22.464844 24.960938 C 22.078125 24.960938 21.824219 25.214844 21.824219 25.601562 C 21.824219 25.984375 22.078125 26.238281 22.464844 26.238281 L 24.960938 26.238281 L 24.960938 28.734375 C 24.960938 29.121094 25.214844 29.375 25.601562 29.375 C 25.984375 29.375 26.238281 29.121094 26.238281 28.734375 L 26.238281 26.238281 L 28.734375 26.238281 C 29.121094 26.238281 29.375 25.984375 29.375 25.601562 C 29.375 25.214844 29.121094 24.960938 28.734375 24.960938 L 26.238281 24.960938 L 26.238281 22.464844 C 26.238281 22.078125 25.984375 21.824219 25.601562 21.824219 M 25.601562 21.824219 "/>
</svg>

<svg role="img" viewBox="0 0 32 32" height="32" width="32" xmlns="http://www.w3.org/2000/svg"><path d="M3.2 2.559c-1.06 0-1.923.859-1.919 1.921v3.84H30.72V7.04c.004-.509-.2-.997-.559-1.36a1.918 1.918 0 0 0-1.36-.559l-17.253.004c-.176-.066-.547-.652-.746-.969-.489-.785-.996-1.597-1.84-1.597ZM1.921 9.602a.645.645 0 0 0-.64.636V27.52c0 1.058.859 1.921 1.917 1.921h17.297C21.668 30.988 23.52 32 25.602 32 29.122 32 32 29.121 32 25.602c0-1.43-.48-2.75-1.281-3.817V10.238a.645.645 0 0 0-.64-.636Zm23.68 10.878c2.812 0 5.117 2.305 5.117 5.122 0 2.812-2.305 5.117-5.117 5.117-2.817 0-5.122-2.305-5.122-5.117 0-2.817 2.305-5.122 5.122-5.122m0 1.344c-.387 0-.641.254-.641.64v2.497h-2.496c-.387 0-.64.254-.64.64 0 .383.253.637.64.637h2.496v2.496c0 .387.254.641.64.641.383 0 .637-.254.637-.64v-2.497h2.496c.387 0 .641-.254.641-.636 0-.387-.254-.641-.64-.641h-2.497v-2.496c0-.387-.254-.64-.636-.64m0 0"/></svg>
